outputs/icons/general/list_bullet_contained_round.svg

<svg width="1200" height="1200" viewBox="0 0 1200 1200" fill="none" xmlns="http://www.w3.org/2000/svg"><path d="M600 450H800C827.5 450 850 427.5 850 400C850 372.5 827.5 350 800 350H600C572.5 350 550 372.5 550 400C550 427.5 572.5 450 600 450ZM600 650H800C827.5 650 850 627.5 850 600C850 572.5 827.5 550 800 550H600C572.5 550 550 572.5 550 600C550 627.5 572.5 650 600 650ZM600 850H800C827.5 850 850 827.5 850 800C850 772.5 827.5 750 800 750H600C572.5 750 550 772.5 550 800C550 827.5 572.5 850 600 850Z" fill="#1D1E23"/><path d="M400 450C427.614 450 450 427.614 450 400C450 372.386 427.614 350 400 350C372.386 350 350 372.386 350 400C350 427.614 372.386 450 400 450Z" fill="#1D1E23"/><path d="M400 650C427.614 650 450 627.615 450 600C450 572.385 427.614 550 400 550C372.386 550 350 572.385 350 600C350 627.615 372.386 650 400 650Z" fill="#1D1E23"/><path d="M400 850C427.614 850 450 827.615 450 800C450 772.385 427.614 750 400 750C372.386 750 350 772.385 350 800C350 827.615 372.386 850 400 850Z" fill="#1D1E23"/><path d="M950 150H250C195 150 150 195 150 250V950C150 1005 195 1050 250 1050H950C1005 1050 1050 1005 1050 950V250C1050 195 1005 150 950 150ZM950 950H250V250H950V950Z" fill="#1D1E23"/></svg>

<svg xmlns="http://www.w3.org/2000/svg" width="1200" height="1200" fill="none"><path fill="#000" d="M600 450h200c27.5 0 50-22.5 50-50s-22.5-50-50-50H600c-27.5 0-50 22.5-50 50s22.5 50 50 50m0 200h200c27.5 0 50-22.5 50-50s-22.5-50-50-50H600c-27.5 0-50 22.5-50 50s22.5 50 50 50m0 200h200c27.5 0 50-22.5 50-50s-22.5-50-50-50H600c-27.5 0-50 22.5-50 50s22.5 50 50 50M400 450c27.614 0 50-22.386 50-50s-22.386-50-50-50-50 22.386-50 50 22.386 50 50 50M400 650c27.614 0 50-22.385 50-50s-22.386-50-50-50-50 22.385-50 50 22.386 50 50 50M400 850c27.614 0 50-22.385 50-50s-22.386-50-50-50-50 22.385-50 50 22.386 50 50 50"/><path fill="#000" d="M950 150H250c-55 0-100 45-100 100v700c0 55 45 100 100 100h700c55 0 100-45 100-100V250c0-55-45-100-100-100m0 800H250V250h700z"/></svg>
